src/assets/icons/sort-asc.svg

<svg width="16" height="16" viewBox="0 0 16 16" fill="none" xmlns="http://www.w3.org/2000/svg">
<g clip-path="url(#clip0_13075_16533)">
<path fill-rule="evenodd" clip-rule="evenodd" d="M5.62459 0.0171145C5.29282 0.0821827 5.00524 0.39106 4.95512 0.736216C4.89403 1.15685 5.17097 1.57497 5.58149 1.68189C5.73335 1.72145 9.1728 1.72137 9.3247 1.68181C9.51527 1.63216 9.71783 1.4793 9.83251 1.29856C9.99151 1.04796 9.98942 0.660736 9.82767 0.40684C9.75813 0.297663 9.59692 0.14802 9.49105 0.0943723C9.29873 -0.0030932 9.34084 -0.00116129 7.44438 0.000599615C6.48528 0.00148862 5.66637 0.00892543 5.62459 0.0171145ZM12.1945 0.0227563C11.8864 0.0974838 11.6223 0.369707 11.5578 0.678892C11.5442 0.744063 11.5389 2.49772 11.5389 6.9271V13.0847L10.8252 12.3744C10.1664 11.7188 10.1029 11.6603 10.001 11.6158C9.67213 11.472 9.29921 11.5413 9.04759 11.7929C8.78214 12.0583 8.71965 12.4301 8.88287 12.7728C8.94007 12.8928 8.99782 12.9531 10.3988 14.3558C11.1998 15.1579 11.889 15.8367 11.9303 15.8643C12.0792 15.9637 12.1775 15.9904 12.3937 15.9904C12.6096 15.9904 12.7247 15.9592 12.8639 15.8626C12.9015 15.8365 13.5912 15.1548 14.3966 14.3478C15.9656 12.7756 15.9208 12.8253 15.9752 12.5944C16.0457 12.2958 15.9645 12.0136 15.7452 11.7943C15.5258 11.5749 15.2436 11.4938 14.945 11.5642C14.7255 11.616 14.7063 11.6317 13.9661 12.3694C13.585 12.7492 13.2677 13.06 13.2609 13.06C13.2541 13.06 13.2485 10.2841 13.2485 6.89137C13.2485 1.26822 13.2461 0.71452 13.221 0.629877C13.2058 0.578793 13.174 0.498595 13.1502 0.451632C13.0939 0.340353 12.9046 0.152158 12.7914 0.0947827C12.6143 0.00504463 12.3828 -0.0229077 12.1945 0.0227563ZM3.39257 3.0488C3.23929 3.08715 3.1404 3.14641 3.00688 3.27993C2.82334 3.46349 2.75206 3.6312 2.75167 3.88048C2.75129 4.12027 2.84341 4.33035 3.0223 4.49771C3.14451 4.61201 3.28989 4.68946 3.43345 4.71668C3.49371 4.72811 4.5054 4.73413 6.36605 4.73413C9.462 4.73413 9.29148 4.73936 9.49101 4.63826C9.59812 4.58397 9.75801 4.43493 9.83082 4.32146C9.98966 4.07391 9.99024 3.68263 9.8321 3.43342C9.76055 3.32063 9.6039 3.17393 9.49763 3.12016C9.29877 3.01953 9.47498 3.0248 6.35022 3.02617C4.11164 3.02714 3.4592 3.03213 3.39257 3.0488ZM0.578417 6.09106C0.162432 6.23817 -0.0820956 6.68527 0.025166 7.10264C0.106339 7.41851 0.352302 7.65955 0.66983 7.73441C0.762645 7.75631 1.33299 7.75968 4.96655 7.7599C7.90288 7.76009 9.18662 7.75462 9.2577 7.74163C9.51394 7.69484 9.74547 7.51505 9.86804 7.26772L9.94042 7.12163L9.94008 6.90663C9.93979 6.72287 9.93405 6.67744 9.90055 6.59377C9.81524 6.38074 9.61968 6.18504 9.40574 6.09861L9.30786 6.05909L4.99962 6.0551L0.691371 6.05112L0.578417 6.09106Z" fill="currentColor"/>
</g>
<defs>
<clipPath id="clip0_13075_16533">
<rect width="16" height="16" fill="white" transform="translate(0 -0.000762939)"/>
</clipPath>
</defs>
</svg>

<svg xmlns="http://www.w3.org/2000/svg" width="16" height="16" fill="none">
  <g clip-path="url(#a)">
    <path fill="currentColor" fill-rule="evenodd" d="M5.625.017c-.332.065-.62.374-.67.72a.863.863 0 0 0 .626.945c.152.04 3.592.04 3.744 0a.925.925 0 0 0 .508-.383.887.887 0 0 0-.005-.892 1.088 1.088 0 0 0-.337-.313C9.299-.003 9.341 0 7.444.001c-.959 0-1.778.008-1.82.016Zm6.57.006a.888.888 0 0 0-.637.656c-.014.065-.02 1.819-.02 6.248v6.158l-.713-.71c-.659-.656-.722-.715-.824-.76a.854.854 0 0 0-.953.178.837.837 0 0 0-.165.98c.057.12.115.18 1.516 1.583.8.802 1.49 1.48 1.531 1.508.15.1.248.126.464.126.216 0 .33-.03.47-.127.037-.027.727-.708 1.533-1.515 1.569-1.572 1.524-1.523 1.578-1.754a.825.825 0 0 0-.23-.8.826.826 0 0 0-.8-.23c-.22.052-.239.068-.979.805-.381.38-.698.691-.705.691-.007 0-.012-2.776-.012-6.169 0-5.623-.003-6.176-.028-6.261a1.29 1.29 0 0 0-.07-.178 1.104 1.104 0 0 0-.36-.357.913.913 0 0 0-.597-.072ZM3.393 3.049a.75.75 0 0 0-.386.23.767.767 0 0 0-.255.601c0 .24.091.45.27.618a.848.848 0 0 0 .411.219c.06.011 1.072.017 2.933.017 3.096 0 2.925.005 3.125-.096a1.09 1.09 0 0 0 .34-.317.889.889 0 0 0 .001-.888 1.06 1.06 0 0 0-.334-.313c-.2-.1-.023-.095-3.148-.094-2.238.001-2.89.006-2.957.023ZM.578 6.09a.863.863 0 0 0-.553 1.012.868.868 0 0 0 .645.631c.093.022.663.026 4.297.026 2.936 0 4.22-.005 4.29-.018a.873.873 0 0 0 .611-.474l.072-.146v-.215c0-.184-.006-.23-.04-.313a.939.939 0 0 0-.494-.495l-.098-.04L5 6.055.69 6.051l-.113.04Z" clip-rule="evenodd"/>
  </g>
  <defs>
    <clipPath id="a">
      <path fill="#fff" d="M0 0h16v16H0z"/>
    </clipPath>
  </defs>
</svg>
